X:1
T:The Water is Wide
M:4/4
L:1/4
K:G
 D G/2A/2 A| B3 A/2A/2| G E D2-| D G G F| G3 A| Bc/2-B/2 A2-| A A BB/2-c/2|\
 d3 c/2c/2| BA/2-G/2 B2-| B A G E| D3 D| E G G2-| G||
